X:8063
T:Jodler II
C:Trad.
R:Jodler
B:Almrausch, Almliada aus Steiermark, Graz 1884
N:Alt Aussee, 1820
I:140
M:3/4
L:1/8
K:G
(B,DGDBD) | (CDADcD) | (CAFDAD) | (GBFA G2) |
(B,DGDBD) | (CDADcD) | (CAFDFA) | G6 ||


